src/lib/packages/icons/src/assets/filled/angles-left-small.svg

<svg width="24" height="24" viewBox="0 0 24 24" fill="none" xmlns="http://www.w3.org/2000/svg">
<path d="M11.7071 15.293C12.0981 15.684 12.0981 16.3161 11.7071 16.7071C11.5121 16.9021 11.256 17 11 17C10.744 17 10.488 16.9021 10.293 16.7071L6.29301 12.7071C5.90201 12.3161 5.90201 11.684 6.29301 11.293L10.293 7.29301C10.684 6.90201 11.3161 6.90201 11.7071 7.29301C12.0981 7.68401 12.0981 8.31607 11.7071 8.70707L8.4141 12L11.7071 15.293ZM14.4141 12L17.7071 8.70707C18.0981 8.31607 18.0981 7.68401 17.7071 7.29301C17.3161 6.90201 16.684 6.90201 16.293 7.29301L12.293 11.293C11.902 11.684 11.902 12.3161 12.293 12.7071L16.293 16.7071C16.488 16.9021 16.744 17 17 17C17.256 17 17.5121 16.9021 17.7071 16.7071C18.0981 16.3161 18.0981 15.684 17.7071 15.293L14.4141 12Z" fill="currentColor"/>
</svg>

<svg xmlns="http://www.w3.org/2000/svg" width="24" height="24" fill="none"><path fill="currentColor" d="M11.707 15.293a.999.999 0 1 1-1.414 1.414l-4-4a.999.999 0 0 1 0-1.414l4-4a.999.999 0 1 1 1.414 1.414L8.414 12l3.293 3.293ZM14.414 12l3.293-3.293a.999.999 0 1 0-1.414-1.414l-4 4a.999.999 0 0 0 0 1.414l4 4a.997.997 0 0 0 1.414 0 .999.999 0 0 0 0-1.414L14.414 12Z"/></svg>
